X: 206
T: Dusty Miller
P: Longways for as many as will
%R: minuet
B: "Caledonian Country Dances" printed by John Walsh for John Johnson, London
S: 1: CCDTB http://imslp.org/wiki/Caledonian_Country_Dances_with_a_Thorough_Bass_(Various) p.16
S: 6: CCDM1 http://imslp.org/wiki/The_Compleat_Country_Dancing-Master_(Various) V.1 p.24 #47
Z: 2013 John Chambers <jc:trillian.mit.edu>
N: The CCDTB and CCDM tunes differ only in tying the repeated notes in bars 2, 4 and 6, so play it either way.
N: The dances are identical, but one is described very briefly, while the other gives details.
M: 3/2
L: 1/8
K: G
% - - - - - - - - - - - - - - - - - - - - - - - - -
V: 1
|: B3c d2B2 TA2G2 | F2A2- A2c2 B2A2 | B3c d2B2 A2G2 | D2G2- G2B2 A2G2 :|\
|: B3c d2e2 f2g2 | a2A2- A2c2 TB2 A2 | B3c d2e2 Tf3e/f/ | g3a g2B2 A2G2 :|
% - - - - - - - - - - - - - - - - - - - - - - - - -
V: 2 clef=bass middle=d
|: g4 B4 c4 | d4 f4 d4 | g4 B4 c4 | d4 D4 G4 :|
|: g4 f4 e4 | d4 f4 d4 | g4 b4 a4 | g4 G8 :|
% - - - - - - - - - - - - - - - - - - - - - - - - -
%%text Brief version from CCDTB:
%%begintext align
%% Lead thro' the 2d Cu. and on the outside of the 3d Cu. meet and turn .|
%% the same up :|
%% turn Corners :|
%% Foot :|
%% and turn :|
%%endtext
%%sep 1 1 300
%%text Detailed version from CCDM:
%%center Each Strain twice.
%%begintext align
%% The 1st Cu. lead thro' the 2d Cu. and the Outside below
%% the 3d Cu. and turn .|  then the 1st Cu. lead thro' the 3d Cu.
%% and on the Outside of the 2d Cu. to the top and turn :|  the
%% 1st Man turn the 3d Wo. as at the same time does his Partner
%% the 2d Man, then meet and turn .|  do the same at the other
%% Corners :|  The 1st Man Foot it with the 3d Wo. as at the
%% same time doth his Partner with the 2d Man, and turn .|  do
%% the same at the other Corners :|  then the Man Heys on the
%% Wo's side, as at the same time doth his Partner on the Man's
%% side 'till they come into the 2d Cu. Place, and turn :|
%%endtext
%%sep 1 8 500

%%sep 1 1 500
%%sep 1 1 500
